X:61
T:Devanny's Goat
R:reel
M:4/4
L:1/8
K:Dmaj
|:DF F2 ADFA | defe dBAF | DF F2 BFAF | E3D EGFE |
DF F2 ADFA | defe dBAd | efdB AFdB | AFEG FD D2 :||
|:faab afdf | a2 fd edBd | ABde fd d2 | e2 fd edBd |
Adcd fdcd | edfd edBd | A2 dB AFDF | AFEG FD D2 :||

